X: 2141
T: CORIEMONIE'S RANT
C: DONALL DOW
Q: "Strathspey."
R: Strathspey.
%R: strathspey
B: James Kerr "Merry Melodies" v.2 p.17 #141
Z: 2016 John Chambers <jc:trillian.mit.edu>
M: C
L: 1/8
K: D
uF |\
vA<DA>uF d>FA<B | A<DA>F E>FG<B |\
A<DA>F d>FA<d | d>fe>g f<d-d ::\
ug |\
vf2ud>uf vg>ue f<d |
e/e/e f>d g>e=c>e |\
[1 f2d>f g>e f<d | e/e/e (a>g) f<dd :|\
[2 f<a e<f d>eB<d | A<FA>g f<dd |]
